app/component-library/components/Icons/Icon/assets/programming-arrows.svg

<svg width="24" height="24" viewBox="0 0 24 24" fill="none" xmlns="http://www.w3.org/2000/svg">
<path d="M20.0112 16.1002C20.0112 16.0702 20.0312 16.0402 20.0312 16.0002V6.50018C20.0312 4.98018 18.8013 3.75018 17.2812 3.75018H13.3512L14.7612 2.58018C15.0812 2.31018 15.1213 1.84018 14.8612 1.52018C14.5912 1.20018 14.1213 1.16018 13.8013 1.42018L10.8013 3.92018C10.6313 4.06018 10.5312 4.27018 10.5312 4.50018C10.5312 4.73018 10.6313 4.93018 10.8013 5.08018L13.8013 7.58018C13.9413 7.70018 14.1112 7.75018 14.2812 7.75018C14.4913 7.75018 14.7112 7.66018 14.8612 7.48018C15.1312 7.16018 15.0812 6.69018 14.7612 6.42018L13.3512 5.25018H17.2812C17.9713 5.25018 18.5312 5.81018 18.5312 6.50018V16.0002C18.5312 16.0402 18.5513 16.0702 18.5513 16.1002C17.2513 16.4302 16.2812 17.6002 16.2812 19.0002C16.2812 20.6602 17.6213 22.0002 19.2812 22.0002C20.9412 22.0002 22.2812 20.6602 22.2812 19.0002C22.2812 17.6002 21.3112 16.4302 20.0112 16.1002Z" fill="currentColor"/>
<path d="M13.7612 18.92L10.7612 16.42C10.4412 16.15 9.97125 16.2 9.70125 16.52C9.43125 16.84 9.48125 17.31 9.80125 17.58L11.2113 18.75H7.28125C6.59125 18.75 6.03125 18.19 6.03125 17.5V8C6.03125 7.96 6.01125 7.93 6.01125 7.9C7.31125 7.57 8.28125 6.4 8.28125 5C8.28125 3.34 6.94125 2 5.28125 2C3.62125 2 2.28125 3.34 2.28125 5C2.28125 6.4 3.25125 7.57 4.55125 7.9C4.55125 7.93 4.53125 7.96 4.53125 8V17.5C4.53125 19.02 5.76125 20.25 7.28125 20.25H11.2113L9.80125 21.42C9.48125 21.69 9.44125 22.16 9.70125 22.48C9.85125 22.66 10.0613 22.75 10.2812 22.75C10.4513 22.75 10.6212 22.69 10.7612 22.58L13.7612 20.08C13.9312 19.94 14.0312 19.73 14.0312 19.5C14.0312 19.27 13.9312 19.07 13.7612 18.92Z" fill="currentColor"/>
</svg>

<svg xmlns="http://www.w3.org/2000/svg" width="24" height="24" viewBox="0 0 24 24" fill="none"><path d="M20.011 16.1c0-.03.02-.06.02-.1V6.5c0-1.52-1.23-2.75-2.75-2.75h-3.93l1.41-1.17c.32-.27.36-.74.1-1.06a.758.758 0 0 0-1.06-.1l-3 2.5c-.17.14-.27.35-.27.58 0 .23.1.43.27.58l3 2.5c.14.12.31.17.48.17a.75.75 0 0 0 .48-1.33l-1.41-1.17h3.93c.69 0 1.25.56 1.25 1.25V16c0 .04.02.07.02.1-1.3.33-2.27 1.5-2.27 2.9 0 1.66 1.34 3 3 3s3-1.34 3-3c0-1.4-.97-2.57-2.27-2.9zM13.761 18.92l-3-2.5a.75.75 0 0 0-1.06.1.75.75 0 0 0 .1 1.06l1.41 1.17h-3.93c-.69 0-1.25-.56-1.25-1.25V8c0-.04-.02-.07-.02-.1 1.3-.33 2.27-1.5 2.27-2.9 0-1.66-1.34-3-3-3s-3 1.34-3 3c0 1.4.97 2.57 2.27 2.9 0 .03-.02.06-.02.1v9.5c0 1.52 1.23 2.75 2.75 2.75h3.93l-1.41 1.17c-.32.27-.36.74-.1 1.06.15.18.36.27.58.27.17 0 .34-.06.48-.17l3-2.5a.761.761 0 0 0 0-1.16z" fill="currentColor"/></svg>
